X: 1295
T: The Blackberry Blossom
R:Reel
N:Collected by F. O'Neill
B:O'Neill's 1295
Z:Transcribed by Trish O'Neil
M:C|
L:1/8
K:G
(ge)|dBAc BAGA|BcBAB2(ge)|dBAc BGGB|Aaa^ga2:|
(ef)|gfge gbag|gfga beef|gfga bagf|eaa^ga2(ef)|
gfge gbaf|gfga beeg1(3bag af gfed|eaa^ga2|]


